X: 395
T:Father O'Grady's visit to Bocca
R:Reel
C:Josie McDermott
Z:Transcribed by Andrew Pickering
M:4/4
L:1/8
K:D
FG|Adde fdec|ABAG EFAe|fded cAAG|EFGE D2 de|
fdec ABAG|EFGE ABde|fded cAAG|EFGE D2:|
FG|Adde fage|dfed cAAF|G2 GA GE E2|edcA GE E2|
Adde fage|dfed cAAe|f2 fa ge e2|fage d2:|

